X: 588
T: Tipperary.
T: tiobra.d-arainn
N:"Lively" "Collected from F. O'Neill."
B:O'Neill's 588
Z:Transcribed by John B. Walsh (walsh@math.ubc.ca)
M:6/8
%Q:110
K:G
D|G>AG d>ed|G>AG F>ED|G>FG E>FG|A>BG E2D|
G>AG d>ed|G>AG F>ED|G>FG A>B {d}c|BAF G2||
B|B>cB e>fe|d>cB A2 A|A>Bc c>BA|BGA B2B|
B>cB e>fe|dcB A2 A|A>Bc BAB|GEF E2||
D/D/|G>AG d>ed|G>AG F>ED|G>FG EFG|ABG F>ED|
GBd gde|dcB AHe2|d>ed GAB|cAF G2||


